X: 35214
T: Rory Macnab
R: reel
M: 4/4
K: Eminor
|:B2 EF/G/ BGEG|AFDF dFDF|BGEG eg/a/ ba|gef^d e/e/e e2:|
|:egfe B/B/B eB|defe d/d/d fd|egfe dBAF|GBAF E/E/E E2:|

